static/assets/images/tokens/usdv.svg

<svg width="256" height="256" viewBox="0 0 256 256" fill="none" xmlns="http://www.w3.org/2000/svg">
<path d="M256 127.973C256.022 153.311 248.515 178.084 234.432 199.154C220.349 220.224 200.323 236.642 176.893 246.327C153.524 255.962 127.823 258.469 103.031 253.533C78.2187 248.586 55.4296 236.405 37.5391 218.528C19.6487 200.651 7.45875 177.879 2.50777 153.085C-2.47958 128.274 0.00722885 102.543 9.65373 79.1441C19.3002 55.7454 35.6733 35.7302 56.7027 21.6292C75.9815 8.73211 98.4045 1.31085 121.576 0.15827C144.748 -0.994313 167.797 4.1651 188.263 15.0853C208.728 26.0054 225.84 42.2761 237.771 62.1591C249.701 82.042 256.002 104.79 256 127.973Z" fill="#0A0A0A"/>
<path fill-rule="evenodd" clip-rule="evenodd" d="M207.486 157.89C207.486 168.451 203.303 178.582 195.851 186.07C188.398 193.558 178.283 197.793 167.714 197.851H137.776V227.549H118.108V197.851H87.9517C77.3834 197.793 67.2677 193.558 59.8152 186.07C52.3627 178.582 48.1795 168.451 48.1796 157.89H68.0656C68.0656 163.16 70.1608 168.215 73.8901 171.941C77.6195 175.668 82.6776 177.762 87.9517 177.762H167.714C172.988 177.762 178.046 175.668 181.776 171.941C185.505 168.215 187.6 163.16 187.6 157.89C187.6 152.62 185.505 147.566 181.776 143.839C178.046 140.113 172.988 138.019 167.714 138.019H87.9517C77.4794 137.904 67.4751 133.666 60.1107 126.225C52.7463 118.785 48.6161 108.742 48.6167 98.2765C48.5583 87.7736 52.6629 77.6746 60.0336 70.1867C67.4042 62.6988 77.4415 58.4308 87.9517 58.3156H117.89V28.6178H137.776V58.3156H167.714C178.283 58.3733 188.398 62.6089 195.851 70.0968C203.303 77.5846 207.486 87.7159 207.486 98.2765H187.819C187.848 95.6301 187.348 93.0046 186.348 90.554C185.348 88.1034 183.868 85.8771 181.996 84.0058C180.123 82.1344 177.895 80.6557 175.442 79.6565C172.99 78.6572 170.363 78.1576 167.714 78.1868H87.9517C82.6486 78.1868 77.5627 80.2919 73.8129 84.039C70.063 87.786 67.9564 92.8681 67.9564 98.1673C67.9564 103.466 70.063 108.549 73.8129 112.296C77.5627 116.043 82.6486 118.148 87.9517 118.148H167.714C178.245 118.205 188.328 122.411 195.774 129.851C203.22 137.292 207.429 147.368 207.486 157.89Z" fill="#F7F7F7"/>
</svg>

<svg xmlns="http://www.w3.org/2000/svg" fill="none" viewBox="0 0 256 256"><path fill="#0A0A0A" d="M256 127.973a127.9 127.9 0 0 1-21.568 71.181 128.04 128.04 0 0 1-57.539 47.173 128.14 128.14 0 0 1-73.862 7.206 128.1 128.1 0 0 1-65.492-35.005 127.93 127.93 0 0 1-35.031-65.443 127.87 127.87 0 0 1 7.146-73.94 128 128 0 0 1 47.049-57.516 128.14 128.14 0 0 1 131.56-6.544 128 128 0 0 1 49.508 47.074A127.9 127.9 0 0 1 256 127.973"/><path fill="#F7F7F7" fill-rule="evenodd" d="M207.486 157.89a39.95 39.95 0 0 1-11.635 28.18 40 40 0 0 1-28.137 11.781h-29.938v29.698h-19.668v-29.698H87.952a40 40 0 0 1-28.137-11.781 39.95 39.95 0 0 1-11.635-28.18h19.886c0 5.27 2.095 10.325 5.824 14.051a19.9 19.9 0 0 0 14.062 5.821h79.762a19.9 19.9 0 0 0 14.062-5.821 19.864 19.864 0 0 0 0-28.102 19.9 19.9 0 0 0-14.062-5.82H87.952a39.8 39.8 0 0 1-27.841-11.794 39.73 39.73 0 0 1-11.494-27.948 39.73 39.73 0 0 1 11.417-28.09 39.8 39.8 0 0 1 27.918-11.871h29.938V28.618h19.886v29.698h29.938a40 40 0 0 1 28.137 11.78 39.95 39.95 0 0 1 11.635 28.18h-19.667a19.86 19.86 0 0 0-5.823-14.27 19.9 19.9 0 0 0-14.282-5.82H87.952a20 20 0 0 0-14.14 5.853 19.97 19.97 0 0 0 0 28.257 20 20 0 0 0 14.14 5.852h79.762a40 40 0 0 1 28.06 11.703 39.95 39.95 0 0 1 11.712 28.039" clip-rule="evenodd"/></svg>
